!!!COM:	Agricola, Alexander
!!!CDT:	~1446-1506/08/15
!!!OPR:	Missa In myne zin
!!!ONM:	3
!!!ONB: Third section (no Kyrie section)
!!!OTL:	Sanctus
!!!AGN:	Mass; Sanctus
!!!SCT:	Agr1001d
!!!SCA:	Agr1001d
!!!voices:	4
!!!voices-OPR:	4
**kern	**kern	**kern	**kern
*staff4	*staff3	*staff2	*staff1
*Ivox	*Ivox	*Ivox	*Ivox
*I"Bassus	*I"Tenor	*I"Contratenor	*I"Superius
*I'B	*I'T	*I'Ct	*I'S
*>[A,B,C,D]	*>[A,B,C,D]	*>[A,B,C,D]	*>[A,B,C,D]
*>A	*>A	*>A	*>A
*clefF4	*clefGv2	*clefGv2	*clefG2
*k[b-]	*k[]	*k[]	*k[]
*M3/1	*M3/1	*M3/1	*M3/1
*met(O)	*met(O)	*met(O)	*met(O)
!!section: Sanctus
!!!OMD: Sanctus
=1-	=1-	=1-	=1-
0.r	0.r	0d	0.d
.	.	1f	.
=2	=2	=2	=2
0.r	0D	2f	0a
.	.	2.f	.
.	.	4e	.
.	.	4d	.
.	.	4c	.
.	1D	1d	1b
=3	=3	=3	=3
1r	1.A	1c	1cc
0D	.	0f	0dd
.	2B-	.	.
.	2A	.	.
.	2B-i	.	.
=4	=4	=4	=4
1A	1c	1e	1cc
2G	2.d	1r	2b
2F	.	.	1a
.	2c	.	.
1D	.	1r	.
.	8BL	.	.
.	8AJ	.	.
.	2B	.	4g
.	.	.	4f
=5	=5	=5	=5
1C	1c	0.r	1e
2GG	2B	.	2d
2C	1A	.	2e
1D	.	.	1f
.	4G	.	.
.	4F	.	.
=6	=6	=6	=6
1C	2E	0.r	1g
.	2G	.	.
1r	2A	.	2f
.	2B	.	2g
1r	2c	.	1a
.	[2d	.	.
=7	=7	=7	=7
0.r	2d]	0.r	2.b-
.	2G	.	.
.	.	.	8aL
.	.	.	8gJ
.	2F	.	2a
.	2G	.	2.g
.	1A	.	.
.	.	.	8fL
.	.	.	8eJ
.	.	.	2f
=8	=8	=8	=8
0.r	2r	0.r	2e
.	1B-	.	1d
.	2.A	.	2c
.	.	.	1B-i
.	4G	.	.
.	[2G	.	.
=9	=9	=9	=9
0.r	2G]	0.r	1A
.	2F#i	.	.
.	1G	.	2r
.	.	.	2e
.	2A	.	2f
.	2B	.	[2g
=10	=10	=10	=10
0.r	1c	0.r	2g]
.	.	.	1e
.	2c	.	.
.	4B	.	2g
.	2c	.	.
.	.	.	2a
.	4A	.	.
.	2G	.	2b
=11	=11	=11	=11
0.r	2A	0.r	1.cc
.	2F	.	.
.	1A	.	.
.	.	.	4b
.	.	.	4a
.	2G	.	1b
.	[2d	.	.
=12	=12	=12	=12
0.r	2d]	0.r	1a
.	2c	.	.
.	1d	.	2r
.	.	.	1a
.	2c	.	.
.	4B	.	4g
.	4A	.	4f
=13	=13	=13	=13
0.r	2G	0.r	1e
.	2c	.	.
.	2r	.	3%2dV
.	2G	.	.
.	.	.	[3eZ
.	1A	.	3e]V
.	.	.	3%2fZ
=14	=14	=14	=14
0.r	2B	0.r	3%2gV
.	2c	.	.
.	.	.	[3aZ
.	1d	.	3a]V
.	.	.	3%2bZ
.	1c	.	3.ccV
.	.	.	6b
.	.	.	3aZ
=15	=15	=15	=15
0.r	3cV	0.r	3gV
.	3%2dZ	.	3a
.	.	.	3bZ
.	3eV	.	3gV
.	3c	.	3.a
.	3dZ	.	.
.	.	.	6gZ
.	3.eV	.	3gV
.	.	.	3e
.	6c	.	.
.	3dZ	.	3fZ
=16	=16	=16	=16
0.r	3BV	0.r	3gV
.	3c	.	3e
.	3dZ	.	3fZ
.	3BV	.	3dV
.	3.c	.	3e
.	.	.	3cZ
.	6AZ	.	.
.	3BV	.	3dV
.	3B	.	3e
.	6A	.	3fZ
.	6GZ	.	.
=17	=17	=17	=17
1r	6AV	1r	3fV
.	6B	.	.
.	3c	.	3e
.	6d	.	3aZ
.	6cZ	.	.
1r	6BV	1r	3aV
.	6A	.	.
.	3%2BZ	.	6g#i
.	.	.	6f#i
.	.	.	3g#iZ
1D	2.A	1f	[1a
.	4B	.	.
=18	=18	=18	=18
2C	2c	2e	0.a]
1D	2F	1f	.
.	1D	.	.
4C	.	4e	.
4BB-	.	4d	.
1AA	1E	1c	.
=19	=19	=19	=19
1A	1D	1d	0.r
2G	2E	1r	.
1A	2.F	.	.
.	.	1r	.
.	4D	.	.
4G	[2d	.	.
4F	.	.	.
=20	=20	=20	=20
1E	2d]	1r	0.r
.	2c#i	.	.
1D	1d	1r	.
2r	1r	1d	.
2D	.	.	.
=21	=21	=21	=21
2E	0.r	2c	0.r
2D	.	1d	.
2G	.	.	.
2.G	.	4c	.
.	.	4B	.
.	.	1A	.
8FL	.	.	.
8EJ	.	.	.
2F	.	.	.
=22	=22	=22	=22
2G	0.r	1G	0.r
2C	.	.	.
2r	.	2d	.
2C	.	2e	.
2D	.	2.f	.
2BB-	.	.	.
.	.	8eL	.
.	.	8dJ	.
=23	=23	=23	=23
2.AA	1r	4.c	0.r
.	.	8B	.
.	.	4A	.
2C	.	8GL	.
.	.	8FJ	.
.	1r	4E	.
8BB-L	.	2F	.
8AAJ	.	.	.
2GG	.	.	.
.	.	4E	.
2FF	2.A	2F	.
2F	.	2r	.
.	[4c	.	.
=24	=24	=24	=24
4r	4c]	1r	0.r
2F	8BL	.	.
.	8AJ	.	.
.	2G	.	.
4E	.	.	.
2F	1F	4r	.
.	.	2c	.
2D	.	.	.
.	.	4B	.
1C	1r	2c	.
.	.	2A	.
=25	=25	=25	=25
2C	1r	4G	0.r
.	.	4A	.
4D	.	4F	.
2C	.	2E	.
.	1r	.	.
4AA	.	2A	.
2BB-	.	.	.
.	.	4G	.
2AA	4r	1A	.
.	4E	.	.
2D	4F	.	.
.	[4G	.	.
=26	=26	=26	=26
4C	8GL]	0.r	0.r
.	8EJ	.	.
4D	4F	.	.
4BB-	4G	.	.
2AA	2A	.	.
2D	8GL	.	.
.	8FJ	.	.
.	2E	.	.
4C	.	.	.
2D	2D	.	.
2E-	2G	.	.
=27	=27	=27	=27
4D	4F	1r	0.r
2C	4G	.	.
.	4E	.	.
4BB-	2D	.	.
2GG	.	1r	.
.	2G	.	.
2AA	.	.	.
.	4F#i	.	.
2GG	2G	2r	.
2r	2r	2A	.
=28	=28	=28	=28
2D	0.r	2B	0.r
2E	.	2c	.
2F	.	1d	.
1G	.	.	.
.	.	2B	.
2E	.	2c	.
=29	=29	=29	=29
2F	0.r	2.d	0.r
2G	.	.	.
.	.	2e	.
2A	.	.	.
.	.	4.f	.
4F	.	.	.
.	.	8e	.
4G	.	4d	.
4E	.	4c	.
4D	.	2d	.
2E	.	.	.
.	.	4c#i	.
=30	=30	=30	=30
[0.D	1A	1d	0a
.	2F	2r	.
.	2.F	2.A	.
.	.	.	1a
.	4G	4G	.
.	2A	4F	.
.	.	4E	.
=31	=31	=31	=31
0.D]	2D	2F	1.dd
.	2.A	2D	.
.	.	2.d	.
.	2B-	.	.
.	.	.	4cc
.	8AL	4e	4b
.	8GJ	.	.
.	2.F	2.f	2.a
.	4G	8eL	4b
.	.	8dJ	.
=32	=32	=32	=32
0.AA	4A	2c	1cc
.	4B	.	.
.	2.c	2.e	.
.	.	.	2a
.	4B	4d	.
.	4A	4c	2.cc
.	4G	4B	.
.	4F	1A	.
.	2c	.	4b
.	.	.	4a
.	4B	.	4g
=33	=33	=33	=33
2r	2A	1r	2f
2C	2G	.	2e
2D	2F	1r	2f
2E	2C	.	2g
[1F	2r	1c	2.a
.	[2A	.	.
.	.	.	4b
=34	=34	=34	=34
2F]	4A]	2.A	2cc
.	4B	.	.
1.FF	2.c	.	2.a
.	.	4B	.
.	.	0c	.
.	4B	.	4g
.	2A	.	1f
1C	1G	.	.
.	.	.	2e
=35	=35	=35	=35
1.D	2.F	1A	1.f
.	4G	.	.
.	2A	2D	.
2C	1A	2E	2e
1BB-	.	2F	1d
.	2G	2D	.
=36	=36	=36	=36
1AA	2.A	2E	1c
.	.	2.e	.
.	4G	.	.
1C	1E	.	2r
.	.	8dL	.
.	.	8cJ	.
.	.	2e	2g
1r	2F	1d	2a
.	2G	.	2b
=37	=37	=37	=37
0FF	2C	1c	0cc
.	2E	.	.
.	2F	2r	.
.	2A	2c	.
1r	1G	2d	1b
.	.	2e	.
=38	=38	=38	=38
1F	2F	1f	2.a
.	1c	.	.
.	.	.	4g
2C	.	1r	2e
2F	2A	.	1a
2D	1B	2d	.
2E	.	2B	2g#i
=39	=39	=39	=39
2C	2.A	2c	[0.a
2D	.	2A	.
.	4B	.	.
2r	2c	2.F	.
2D	2.d	.	.
.	.	4D	.
1AA	.	1E	.
.	8c#iL	.	.
.	8BJ	.	.
.	2c#i	.	.
=40	=40	=40	=40
0D	2d	1D	0a]
.	2A	.	.
.	2F	2d	.
.	2D	2.d	.
1AA	1E	.	1a
.	.	4B	.
.	.	2c#i	.
=41	=41	=41	=41
[0.Dl	[0.Dl	[0.dl	2r
.	.	.	2.f
.	.	.	4e
.	.	.	4f
.	.	.	4g
.	.	.	2a
.	.	.	2b-i
=42	=42	=42	=42
0.D]	0.D]	0.d]	0.al
!!LO:LB:i:g=z
=43||	=43||	=43||	=43||
*>B	*>B	*>B	*>B
*clefF4	*clefGv2	*clefGv2	*clefG2
*k[b-]	*k[]	*k[]	*k[]
*M2/1	*M2/1	*M2/1	*M2/1
*met(C|)	*met(C|)	*met(C|)	*met(C|)
!!section: Pleni sunt celi
!!!OMD: Pleni sunt celi
0r	0r	0r	1g
.	.	.	1a
=44	=44	=44	=44
0r	0r	1G	1b
.	.	1A	1cc
=45	=45	=45	=45
0r	0r	1B	2r
.	.	.	1g
.	.	[1c	.
.	.	.	[2a
=46	=46	=46	=46
0r	0r	0c]	2a]
.	.	.	4g
.	.	.	4f
.	.	.	2e
.	.	.	2a
=47	=47	=47	=47
1GG	0r	1B	2d
.	.	.	1g
1D	.	1A	.
.	.	.	2f#i
=48	=48	=48	=48
1E	0r	2r	1g
.	.	2G	.
1F	.	2A	1c
.	.	4G	.
.	.	4F	.
=49	=49	=49	=49
1G	0r	1E	2r
.	.	.	2g
2F	.	1D	1a
[2F	.	.	.
=50	=50	=50	=50
2F]	0r	2.A	2f
4E	.	.	1f
4D	.	8GL	.
.	.	8FJ	.
1C	.	1G	.
.	.	.	2e
=51	=51	=51	=51
0r	0r	2.F	4f
.	.	.	4e
.	.	.	4d
.	.	4E	4c
.	.	2F	2d
.	.	2E	2g
=52	=52	=52	=52
0r	0r	2D	2.f
.	.	1d	.
.	.	.	8eL
.	.	.	8dJ
.	.	.	1e
.	.	2c#i	.
=53	=53	=53	=53
0r	0r	3%4dV	1d
.	.	.	1f
.	.	3%2dZ	.
=54	=54	=54	=54
3%4GV	0r	3%2.Vd	0r
.	.	3c	.
3%2GZ	.	3B	.
.	.	3AZ	.
=55	=55	=55	=55
3%2.GV	0r	3%2BV	0r
.	.	3%2d	.
3F	.	.	.
3%2EZ	.	[3%2cZ	.
=56	=56	=56	=56
3%4DV	0r	3c]V	0r
.	.	6B	.
.	.	6A	.
.	.	3%2B	.
3%2CZ	.	3%2cZ	.
=57	=57	=57	=57
3%2DV	0r	3BV	0r
.	.	2A	.
3%4FZ	.	.	.
.	.	6G	.
.	.	6F	.
.	.	6E	.
.	.	3%2DZ	.
=58	=58	=58	=58
3%2EV	0r	3%2GV	0r
3%2D	.	3A	.
.	.	3B	.
3%2FZ	.	3A	.
.	.	[3dZ	.
=59	=59	=59	=59
3%2GV	0r	3d]V	0r
.	.	2e	.
3F	.	.	.
.	.	6d	.
3G	.	3%2d	.
3%2EZ	.	.	.
.	.	3c#iZ	.
=60	=60	=60	=60
0D	0r	1d	2r
.	.	.	1a
.	.	1r	.
.	.	.	4g
.	.	.	4f
=61	=61	=61	=61
0r	0r	1c	1e
.	.	2B	1d
.	.	[2G	.
=62	=62	=62	=62
0r	0r	2G]	2.g
.	.	4F	.
.	.	4E	4a
.	.	2D	2b
.	.	2C	[2cc
=63	=63	=63	=63
0r	0r	2.c	4cc]
.	.	.	4b
.	.	.	4a
.	.	4B	4g
.	.	2c	1a
.	.	2d	.
=64	=64	=64	=64
0r	0r	2B	0g
.	.	2.e	.
.	.	4d	.
.	.	4c	.
.	.	4B	.
=65	=65	=65	=65
2r	0r	4A	0r
.	.	4G	.
1D	.	4F	.
.	.	4E	.
.	.	4F	.
.	.	4D	.
4C	.	[2G	.
4BB-	.	.	.
=66	=66	=66	=66
1AA	0r	2G]	2r
.	.	2F#i	2c
[1GG	.	[1G	2B
.	.	.	2c
=67	=67	=67	=67
0GG]	0r	2G]	2d
.	.	2E	2.c
.	.	1D	.
.	.	.	4B
.	.	.	4B
.	.	.	4A
=68	=68	=68	=68
2.C	0r	1A	4c
.	.	.	4d
.	.	.	4e
4D	.	.	4f
2E	.	1r	2g
[2F	.	.	[2a
=69	=69	=69	=69
4F]	0r	0r	0a_
4E	.	.	.
4F	.	.	.
4G	.	.	.
2A	.	.	.
2D	.	.	.
=70	=70	=70	=70
2F	0r	0r	2a]
2G	.	.	1e
2A	.	.	.
2B-i	.	.	[2g
=71	=71	=71	=71
2A	0r	0r	4g]
.	.	.	4f
2F	.	.	1f
1G	.	.	.
.	.	.	2e
=72	=72	=72	=72
0F	0r	0A	1f
.	.	.	[1a
=73	=73	=73	=73
0r	0r	1c	2a]
.	.	.	2g
.	.	1B	[1g
=74	=74	=74	=74
0r	0r	0A	2g]
.	.	.	4f#i
.	.	.	4e
.	.	.	1f#i
=75	=75	=75	=75
0r	0r	1r	1g
.	.	1G	2.e
.	.	.	4f
=76	=76	=76	=76
1r	0r	1E	4g
.	.	.	4a
.	.	.	2.g
1C	.	[1E	.
.	.	.	4f
.	.	.	4e
.	.	.	4d
=77	=77	=77	=77
1AA	0r	2E]	2c
.	.	2F	1d
1AA	.	1E	.
.	.	.	2c#i
=78	=78	=78	=78
1.D	0r	4D	1d
.	.	4E	.
.	.	4F	.
.	.	4G	.
.	.	2F	1r
4C	.	4E	.
4BB-	.	4D	.
=79	=79	=79	=79
2D	0r	2F	0r
2C	.	2E	.
2BB-	.	2D	.
[2C	.	[2E	.
=80	=80	=80	=80
4C]	0r	4E]	0r
4BB-	.	4D	.
2GG	.	1G	.
1AA	.	.	.
.	.	2F#i	.
=81	=81	=81	=81
[0GG	0r	1G	1r
.	.	2r	1d
.	.	[2G	.
=82	=82	=82	=82
0GG]	0r	2G]	2e
.	.	1B-	1d
.	.	4A	4c
.	.	4G	4B
=83	=83	=83	=83
0r	0r	2.F	1A
.	.	4E	.
.	.	1F	1a
=84	=84	=84	=84
0r	0r	1r	2b
.	.	.	2.a
.	.	1c	.
.	.	.	4b
.	.	.	2cc
=85	=85	=85	=85
0r	0r	1d	2b
.	.	.	1a
.	.	[1c	.
.	.	.	4g
.	.	.	4f
=86	=86	=86	=86
0r	0r	2c]	2.e
.	.	4B	.
.	.	4A	4f
.	.	2B	2g
.	.	2c	[2a
=87	=87	=87	=87
0r	0r	2d	2a]
.	.	4B	1g
.	.	4c	.
.	.	1A	.
.	.	.	2f#i
=88	=88	=88	=88
0r	0r	1G	1g
.	.	1r	1dd
=89	=89	=89	=89
1r	0r	1d	2b
.	.	.	2.dd
1G	.	1B	.
.	.	.	4cc
.	.	.	4b
.	.	.	4a
=90	=90	=90	=90
1E	0r	1B	1g
1E	.	[1e	1r
=91	=91	=91	=91
1.A	0r	2e]	0cc
.	.	4d	.
.	.	4c	.
.	.	1c	.
4G	.	.	.
4F	.	.	.
=92	=92	=92	=92
2A	0r	0r	2cc
2G	.	.	2b
2F	.	.	2a
[2G	.	.	4g
.	.	.	4f
=93	=93	=93	=93
4G]	0r	1r	4e
4F	.	.	4d
2D	.	.	1d
1E	.	2r	.
.	.	[2G	2c#i
=94	=94	=94	=94
1D	0r	4G]	1d
.	.	4F#i	.
.	.	4F#i	.
.	.	4E	.
1r	.	[1G	2.B
.	.	.	4c
=95	=95	=95	=95
0r	0r	0G]	2d
.	.	.	1e
.	.	.	[2d
=96	=96	=96	=96
0r	0r	1B	2d]
.	.	.	1g
.	.	1c	.
.	.	.	2a
=97	=97	=97	=97
1r	0r	2B	2g
.	.	2c	1cc
1GG	.	1d	.
.	.	.	2b
=98	=98	=98	=98
1.C	0r	1c	1cc
.	.	1G	1r
2BB-	.	.	.
=99	=99	=99	=99
0AA	0r	1c	0e
.	.	2.c	.
.	.	4B	.
=100	=100	=100	=100
0r	0r	2A	2f
.	.	2G	1e
.	.	2A	.
.	.	2c	[2a
=101	=101	=101	=101
1r	0r	1B	2a]
.	.	.	2g
2.AA	.	2A	1a
.	.	4G	.
4BB-	.	4F	.
=102	=102	=102	=102
2C	0r	0E	1r
2.C	.	.	.
.	.	.	1g
4BB-	.	.	.
4AA	.	.	.
4GG	.	.	.
=103	=103	=103	=103
0FF	0r	1r	1.cc
.	.	1A	.
.	.	.	2b
=104	=104	=104	=104
0r	0r	1d	2.a
.	.	.	4g
.	.	2.d	2.f
.	.	4c	4e
=105	=105	=105	=105
1r	0r	1B	1d
1D	.	2.B	1r
.	.	4A	.
=106	=106	=106	=106
1.G	0r	2G	1r
.	.	2.B	.
.	.	.	1d
.	.	4c	.
2F	.	2A	.
=107	=107	=107	=107
1E	0r	2.G	1.g
.	.	4A	.
2r	.	4B	.
.	.	4c	.
2D	.	[2d	2f
=108	=108	=108	=108
2G	0r	4d]	1e
.	.	4c	.
2.G	.	4B	.
.	.	4A	.
.	.	1B	2d
4F	.	.	.
4E	.	.	[2g
4D	.	.	.
=109	=109	=109	=109
1C	0r	2c	4g]
.	.	.	4f
.	.	2.G	4e
.	.	.	4d
1r	.	.	4e
.	.	4F	4f
.	.	4E	[2g
.	.	4D	.
=110	=110	=110	=110
0r	0r	2E	4g]
.	.	.	4c
.	.	2F	1c
.	.	1D	.
.	.	.	2B
=111	=111	=111	=111
2r	0r	1C	1c
2E	.	.	.
2.G	.	2r	1r
.	.	2E	.
4F	.	.	.
=112	=112	=112	=112
2E	0r	2G	1r
2AA	.	2A	.
2.C	.	2G	1e
.	.	[2c	.
4BB-	.	.	.
=113	=113	=113	=113
1AA	0r	4c]	2.a
.	.	4B	.
.	.	2.A	.
.	.	.	4g
2.D	.	.	2.f
.	.	4G	.
.	.	[2F	.
4C	.	.	4e
=114	=114	=114	=114
2BB-	0r	2F]	2d
2AA	.	2F	2c
2GG	.	2E	2g
2FF	.	2F	2a
=115	=115	=115	=115
2C	0r	2E	4g
.	.	.	4e
2D	.	2A	2f
1E	.	4G	1g
.	.	4A	.
.	.	4B	.
.	.	4c	.
=116	=116	=116	=116
2D	0r	2d	2f
2C	.	2G	2.e
2D	.	2F	.
.	.	.	4d
2GG	.	2G	[2d
=117	=117	=117	=117
1AA	0r	1E	4d]
.	.	.	4c
.	.	.	1c
[1E	.	1r	.
.	.	.	[2g
=118	=118	=118	=118
1E]	0r	1C	4g]
.	.	.	4f
.	.	.	2g
[1F	.	2.c	2a
.	.	.	[2cc
.	.	4B	.
=119	=119	=119	=119
1F]	0r	2.A	4cc]
.	.	.	4b
.	.	.	2a
.	.	4B	.
2E	.	4c	1g
.	.	4d	.
2G	.	[2e	.
=120	=120	=120	=120
1F	0r	2e]	1a
.	.	2d	.
[1E	.	[1e	[1g
=121	=121	=121	=121
0E_	0r	2e]	0g_
.	.	4d	.
.	.	4c	.
.	.	2B	.
.	.	2c	.
=122	=122	=122	=122
1E]	0r	2.B	0g_
.	.	4E	.
[1C	.	1E	.
=123	=123	=123	=123
1C]	0r	1E	1g]
1F	.	1A	[1c
=124	=124	=124	=124
2E	0r	2G	0c]
2.F	.	2.A	.
4E	.	4G	.
2C	.	[2c	.
=125	=125	=125	=125
1G	0r	2c]	1d
.	.	2B	.
1C	.	2c	1e
.	.	2A	.
=126	=126	=126	=126
2r	0r	2B	2d
2.C	.	2.c	2.e
4D	.	4B	4d
2E	.	2G	[2g
=127	=127	=127	=127
1D	0r	1A	2g]
.	.	.	2f
2E	.	1G	2g
2C	.	.	2e
=128	=128	=128	=128
2D	0r	2r	2f
1E	.	2B	2.g
.	.	2c	.
.	.	.	4f
2F	.	[2d	2d
=129	=129	=129	=129
2G	0r	2d]	1e
2A	.	2c	.
1D	.	2d	1d
.	.	2B	.
=130	=130	=130	=130
2r	0r	2c	2e
2.D	.	2.d	2.f
4E	.	4c	4e
2F	.	2A	[2a
=131	=131	=131	=131
2D	0r	1B	2a]
2E	.	.	2g
1F	.	1A	2a
.	.	.	2f
=132	=132	=132	=132
2E	0r	2B	2g
2.F	.	2A	2.a
.	.	2c	.
4E	.	.	4g
2C	.	[2c	2e
=133	=133	=133	=133
1D	0r	4c]	2.f
.	.	4B-	.
.	.	4B-i	.
.	.	4A	4g
1Cl	.	1cl	1el
!!LO:LB:i:g=z
=134||	=134||	=134||	=134||
*>C	*>C	*>C	*>C
*clefF4	*clefGv2	*clefGv2	*clefG2
*k[b-]	*k[]	*k[]	*k[]
*M3/1	*M3/1	*M3/1	*M3/1
*met(O|)	*met(O|)	*met(O|)	*met(O|)
!!section: Osanna I
!!!OMD: Osanna I
0.D	0d	[0.f	[0.a
.	1d	.	.
=135	=135	=135	=135
1.F	1.A	1f]	1a]
.	.	2d	2f
2E	2G	2e	2g
1D	1F	1f	2.a
.	.	.	4b
=136	=136	=136	=136
0C	1.G	1e	1cc
.	.	1E	2.cc
.	2.c	.	.
.	.	.	4b
1D	.	1F	2a
.	4A	.	.
.	2B-	.	4g
.	.	.	4f
=137	=137	=137	=137
2C	2c	2G	2e
2.D	2A	2F	2.f
.	2B-i	0D	.
4E	.	.	4g
4F	2G	.	2.a
4G	.	.	.
1A	1F	.	.
.	.	.	4g
.	.	.	4f
.	.	.	4e
=138	=138	=138	=138
2F	2r	2d	2f
2D	2d	2d	2.a
1E	2B	4c	.
.	.	4B	4g
.	2G	2c	1g
1D	1A	1d	.
.	.	.	2f#i
=139	=139	=139	=139
2r	1G	1B	1g
2E	.	.	.
2C	2r	2c	1r
2AA	2A	2.e	.
1BB-	2F	.	1r
.	.	4d	.
.	2D	[2d	.
=140	=140	=140	=140
1AA	1E	2d]	0a
.	.	2c#i	.
1D	1F	0d	.
[1GG	1G	.	1b
=141	=141	=141	=141
1GG]	2.G	1B	0dd
.	4A	.	.
1r	2B	1d	.
.	1.c	.	.
[1C	.	2.e	[1cc
.	.	4d	.
=142	=142	=142	=142
0C]	1G	2e	2cc]
.	.	1f	4b
.	.	.	4a
.	1c	.	1g
.	.	2e	.
[1D	1F	[1f	1f
=143	=143	=143	=143
1D]	2D	0f]	1.a
.	2.F	.	.
1D	.	.	.
.	4E	.	.
.	2D	.	4g
.	.	.	4f
1G	[1C	[1g	[1e
=144	=144	=144	=144
2.G	1C]	1g]	1e]
4F	.	.	.
4E	2.C	2.g	2.e
4D	.	.	.
1C	.	.	.
.	4D	4f	4f
.	2E	4e	2g
.	.	4d	.
2F	2F	[2c	2a
=145	=145	=145	=145
2E	2C	2c]	2g
2F	2F	2.c	1f
1C	1G	.	.
.	.	4B	.
.	.	2c	2e
[1FF	[1F	2A	1f
.	.	2F	.
=146	=146	=146	=146
0FF]	1F]	0f	0a
.	1c	.	.
[1C	2.c	1e	2.g
.	4B	.	4f
=147	=147	=147	=147
1C]	2G	1r	2e
.	2A	.	2c
1BB-	4G	1r	1d
.	4F	.	.
.	2G	.	.
2AA	1A	2r	1c
2C	.	[2e	.
=148	=148	=148	=148
2D	1r	4e]	1r
.	.	4d	.
2F	.	1d	.
1E	2r	.	1r
.	2G	2c#i	.
2D	2F	1d	2r
2F	2D	.	[2a
=149	=149	=149	=149
2G	2E	2r	4a]
.	.	.	4g
2B-	2G	2.d	1g
1A	1D	.	.
.	.	4c	.
.	.	2d	2f#i
1G	2r	2B	2g
.	2B	2G	[2dd
=150	=150	=150	=150
1C	2c	2r	4dd]
.	.	.	4cc
.	2e	2.g	1cc
1G	1d	.	.
.	.	4f	.
.	.	2g	2b
[1C	[1c	2e	1cc
.	.	2c	.
=151	=151	=151	=151
1C]	1c]	1e	1r
1r	2.A	2.e	1cc
.	4B	8dL	.
.	.	8eJ	.
[1F	2c	1f	2.a
.	[2c	.	.
.	.	.	4b
=152	=152	=152	=152
0F]	4c]	2.F	2cc
.	4B	.	.
.	4A	.	2.cc
.	4G	4G	.
.	[0F	2A	.
.	.	.	4b
.	.	2D	4a
.	.	.	4g
1D	.	2r	1f
.	.	[2d	.
=153	=153	=153	=153
0BB-	0F]	2d]	1.b-
.	.	2d	.
.	.	1d	.
.	.	.	4a
.	.	.	4g
[1F	[1D	2.d	[1a
.	.	4e	.
=154	=154	=154	=154
1F]	1D]	2f	1a]
.	.	1f	.
1G	1C	.	1r
.	.	2e	.
1D	1F	1f	[1a
=155	=155	=155	=155
1.F	1.A	2.f	1a]
.	.	8eL	.
.	.	8dJ	.
.	.	2c	1f
4E	4G	2d	.
4D	4F	.	.
1C	2c	2.e	2.g
.	4B	.	.
.	4A	8dL	4f
.	.	8cJ	.
=156	=156	=156	=156
1r	2G	2B	2.e
.	2A	4c	.
.	.	4B	8dL
.	.	.	8cJ
1r	2F	4A	2d
.	.	4G	.
.	2E	2G	1c
1F	1D	2A	.
.	.	2F	2B
=157	=157	=157	=157
2.E	1C	1G	2c
.	.	.	2cc
4F	.	.	.
2G	1r	2d	2b
2A	.	1c	2.cc
1F	1A	.	.
.	.	.	4b
.	.	2d	[2a
=158	=158	=158	=158
1E	1B	2.e	2a]
.	.	.	2g
.	.	4d	.
2.AA	2A	4c	2.cc
.	.	4B	.
.	2.c	1A	.
4BB-	.	.	4b
2C	.	.	4a
.	4B	.	4g
[2D	4A	[2A	[2f
.	4G	.	.
=159	=159	=159	=159
2D]	2F	4A]	4f]
.	.	8GL	4e
.	.	8AJ	.
2GG	2G	2B-i	1d
1AA	1E	1A	.
.	.	.	2c#i
[1Dl	[1Dl	2.F	[1dl
.	.	4G	.
=160	=160	=160	=160
0.D]	0.D]	1A	0.d]
.	.	0Al	.
!!LO:LB:i:g=z
=161||	=161||	=161||	=161||
*>D	*>D	*>D	*>D
*clefF4	*clefGv2	*clefGv2	*clefG2
*k[b-]	*k[]	*k[]	*k[]
*M2/1	*M2/1	*M2/1	*M2/1
*met(C|)	*met(C|)	*met(C|)	*met(C|)
!!section: Benedictus and Osanna II
!!!OMD: Benedictus and Osanna II
0r	1.d	0r	0d
.	[2B	.	.
=162	=162	=162	=162
0r	4B]	0r	1d
.	4c	.	.
.	2d	.	.
.	2G	.	2.d
.	2F	.	.
.	.	.	8cL
.	.	.	8dJ
=163	=163	=163	=163
0r	2.G	0r	2e
.	.	.	1d
.	4A	.	.
.	2B	.	.
.	2c	.	[2g
=164	=164	=164	=164
1r	1A	1r	2g]
.	.	.	2f#i
[1G	1r	2.d	1g
.	.	4c	.
=165	=165	=165	=165
2G]	0r	4B	0r
.	.	4A	.
2.E	.	2.G	.
4F	.	4F	.
2G	.	4E	.
.	.	4D	.
=166	=166	=166	=166
2C	0r	2E	0r
2BBni	.	2D	.
2.C	.	2C	.
.	.	[2e	.
4D	.	.	.
=167	=167	=167	=167
2E	0r	4e]	0r
.	.	4d	.
2F	.	1c	.
1D	.	.	.
.	.	2B	.
=168	=168	=168	=168
1C	0r	0c	1r
1E	.	.	1g
=169	=169	=169	=169
2.F	0r	1r	0a
4E	.	.	.
4D	.	[1f	.
4C	.	.	.
[2D	.	.	.
=170	=170	=170	=170
2D]	1r	2f]	1.a
4C	.	4e	.
4BB-	.	4d	.
1AA	1A	1c	.
.	.	.	4g
.	.	.	4a
=171	=171	=171	=171
0r	2G	1d	2b
.	2F	.	1a
.	1D	2.f	.
.	.	.	[2dd
.	.	4e	.
=172	=172	=172	=172
0r	2D	0d	4dd]
.	.	.	4cc
.	1G	.	4b
.	.	.	4a
.	.	.	2b
.	2F	.	[2a
=173	=173	=173	=173
0r	2G	1.d	4a]
.	.	.	4g
.	4F	.	2g
.	4E	.	.
.	1D	.	2f
.	.	4c	4e
.	.	4d	4d
=174	=174	=174	=174
0AA	0A	[0e	0c
=175	=175	=175	=175
*	*	*	*M3/3%2
*	*	*	*met(O3)
*	*	*	*rscale:3/2
0E	0r	0e]	3g
.	.	.	3a
.	.	.	3b
.	.	.	3cc
.	.	.	3b
.	.	.	3g
=176	=176	=176	=176
2.F	0r	1c	3%2a
.	.	.	3g
4C	.	.	.
2D	.	2A	3f
.	.	.	2e
2AA	.	2c	.
.	.	.	6f
=177	=177	=177	=177
0GG	0r	1.B	3g
.	.	.	3e
.	.	.	3f
.	.	.	3g
.	.	.	3a
.	.	4A	.
.	.	.	3b
.	.	4G	.
=178	=178	=178	=178
1C	0r	1A	3.cc
.	.	.	6b
.	.	.	6a
.	.	.	6g
1D	.	1A	3f#i
.	.	.	3e
.	.	.	3f#i
*	*	*	*rscale:1
=179	=179	=179	=179
*	*	*M3/3%2	*M2/1
*	*	*met(O3)	*met(C|)
*	*	*rscale:3/2	*
1.E	0r	3G	1g
.	.	3A	.
.	.	3B	.
.	.	3c	1r
.	.	3d	.
4D	.	.	.
.	.	3e	.
4C	.	.	.
=180	=180	=180	=180
1D	0r	3.f	0r
.	.	6e	.
.	.	6d	.
.	.	6c	.
1D	.	3B	.
.	.	3A	.
.	.	3B	.
*	*	*rscale:1	*
=181	=181	=181	=181
*	*M3/3%2	*M2/1	*
*	*met(O3)	*met(C|)	*
*	*rscale:3/2	*	*
1C	3E	1c	0r
.	3F	.	.
.	3G	.	.
1AA	3A	1r	.
.	3B	.	.
.	3c	.	.
=182	=182	=182	=182
0BB-	3.d	0r	0r
.	6c	.	.
.	6B-i	.	.
.	6A	.	.
.	3G	.	.
.	3F	.	.
.	3G	.	.
*	*rscale:1	*	*
=183	=183	=183	=183
*	*M2/1	*	*
*	*met(C|)	*	*
1AA	0A	1.e	1.cc
1C	.	.	.
.	.	4d	2b
.	.	4e	.
=184	=184	=184	=184
1D	1F	1f	1a
2E	1c	2e	2g
[2F	.	2c	[2a
=185	=185	=185	=185
4F]	2.c	2A	4a]
4E	.	.	4g
4D	.	2.c	4f
4C	4B	.	4e
1D	2A	.	[1f
.	.	4B	.
.	4G	4B	.
.	4F	4A	.
=186	=186	=186	=186
0C	0G	0c	2f]
.	.	.	4e
.	.	.	4d
.	.	.	1e
=187	=187	=187	=187
0D	0F	1A	0f
.	.	2r	.
.	.	[2A	.
=188	=188	=188	=188
1D	1r	2A]	0r
.	.	4G	.
.	.	4F	.
2C	1G	4E	.
.	.	4D	.
2E	.	2G	.
=189	=189	=189	=189
1D	2A	2F	1r
.	2B	4E	.
.	.	4D	.
1C	2c	1E	1g
.	2e	.	.
=190	=190	=190	=190
0r	2.d	1r	2a
.	.	.	2b
.	8cL	.	.
.	8BJ	.	.
.	2.A	2.c	[1cc
.	4G	4B	.
=191	=191	=191	=191
0r	2F	2A	1cc]
.	2E	2G	.
.	2F	2F	1cc
.	2C	2E	.
=192	=192	=192	=192
0r	1r	2F	1.a
.	.	2C	.
.	2F	1r	.
.	2E	.	2g
=193	=193	=193	=193
0r	4D	0r	2f
.	4C	.	.
.	1c	.	2e
.	.	.	1d
.	2B	.	.
=194	=194	=194	=194
0r	2c	2r	1c
.	2F	1f	.
.	1G	.	2r
.	.	2e	2g
=195	=195	=195	=195
0r	1F	2f	2.a
.	.	2.c	.
.	.	.	4b
.	1r	.	2.cc
.	.	4d	.
.	.	2e	.
.	.	.	8bL
.	.	.	8ccJ
=196	=196	=196	=196
0r	0r	4d	4b
.	.	4c	4a
.	.	4B	2.a
.	.	4A	.
.	.	1B	.
.	.	.	4g
.	.	.	2g
=197	=197	=197	=197
0r	0r	2.A	2r
.	.	.	2.a
.	.	4B	.
.	.	2c	.
.	.	.	4g
.	.	4d	4f
.	.	4c	4e
=198	=198	=198	=198
0r	0r	4B	2d
.	.	4A	.
.	.	2.d	2f
.	.	.	1e
.	.	4c#i	.
.	.	2c#i	.
=199	=199	=199	=199
0r	0r	2r	2.d
.	.	2.d	.
.	.	.	4e
.	.	.	2f
.	.	4c	.
.	.	4B	4g
.	.	4A	4f
=200	=200	=200	=200
0r	0r	2G	4e
.	.	.	4d
.	.	2B	1g
.	.	1A	.
.	.	.	2f#i
=201	=201	=201	=201
2r	2.G	0r	1g
2.G	.	.	.
.	4A	.	.
.	2B	.	1r
4F	.	.	.
4E	4c	.	.
4D	4B	.	.
=202	=202	=202	=202
2C	4A	0r	0r
.	4G	.	.
2E	2.c	.	.
1D	.	.	.
.	4B	.	.
.	2B	.	.
=203	=203	=203	=203
2.C	2r	0r	0r
.	2.c	.	.
4D	.	.	.
2E	.	.	.
.	4B	.	.
4F	4A	.	.
4E	4G	.	.
=204	=204	=204	=204
4D	2F	0r	0r
4C	.	.	.
2.F	2A	.	.
.	1G	.	.
4E	.	.	.
2E	.	.	.
=205	=205	=205	=205
2r	2.F	0r	0r
2.F	.	.	.
.	4G	.	.
.	2A	.	.
4E	.	.	.
4D	4B-	.	.
4C	4A	.	.
=206	=206	=206	=206
2BB-	4G	0r	0r
.	4F	.	.
2D	1B-i	.	.
1C	.	.	.
.	2A	.	.
=207	=207	=207	=207
2BB-	4B-i	0r	0r
.	4A	.	.
2D	4B-i	.	.
.	4c	.	.
2C	4A	.	.
.	4G	.	.
2AA	2c	.	.
=208	=208	=208	=208
2GG	2B-i	0r	0r
2BB-	2G	.	.
1AA	4F#i	.	.
.	4E	.	.
.	2F#i	.	.
=209	=209	=209	=209
0r	2G	0r	4d
.	.	.	4e
.	1A	.	4f
.	.	.	4e
.	.	.	4f
.	.	.	4g
.	4G	.	[2e
.	4F	.	.
=210	=210	=210	=210
1r	4G	0r	4e]
.	4F	.	4d
.	4E	.	1d
.	4D	.	.
1AA	1E	.	.
.	.	.	2c#i
=211	=211	=211	=211
1BB-	1D	1r	1d
1C	1r	2r	1r
.	.	2G	.
=212	=212	=212	=212
2.AA	0r	2A	0r
.	.	1c	.
4BB-	.	.	.
2C	.	.	.
2D	.	2B	.
=213	=213	=213	=213
2AA	0r	2.c	0r
2.C	.	.	.
.	.	4d	.
.	.	1e	.
4D	.	.	.
2E	.	.	.
=214	=214	=214	=214
2F	0r	2d	0r
2C	.	1e	.
2E	.	.	.
2F	.	4d	.
.	.	4c	.
=215	=215	=215	=215
2G	0r	2B	0r
4F	.	1c	.
4E	.	.	.
1D	.	.	.
.	.	2B	.
=216	=216	=216	=216
1C	1r	2.c	1r
.	.	4d	.
1r	2r	1B	1d
.	[2d	.	.
=217	=217	=217	=217
0r	4d]	0r	1f
.	4c	.	.
.	4B	.	.
.	4A	.	.
.	2B	.	1g
.	2c	.	.
=218	=218	=218	=218
0r	1F	0r	2.a
.	.	.	4b
.	2r	.	4cc
.	.	.	4dd
.	[2A	.	[2cc
=219	=219	=219	=219
0r	2A]	0r	2cc]
.	4G	.	4b
.	4F	.	4a
.	4G	.	2b
.	4A	.	.
.	4B	.	[2g
.	4c	.	.
=220	=220	=220	=220
0r	2B	0r	4g]
.	.	.	4a
.	1G	.	4b
.	.	.	4cc
.	.	.	2b
.	4F	.	4a
.	4E	.	4g
=221	=221	=221	=221
0r	4F	0r	2a
.	4G	.	.
.	4A	.	2.f
.	4B-i	.	.
.	2A	.	.
.	.	.	4g
.	[2F	.	4a
.	.	.	4b-i
=222	=222	=222	=222
0r	2F]	0r	2a
.	4E	.	4g
.	4D	.	4f
.	4E	.	2g
.	4F	.	.
.	4G	.	[2e
.	4A	.	.
=223	=223	=223	=223
0r	2G	0r	4e]
.	.	.	4f
.	1E	.	4g
.	.	.	4a
.	.	.	2g
.	4D	.	4f
.	4C	.	4e
=224	=224	=224	=224
0r	2D	0r	2.f
.	1d	.	.
.	.	.	4g
.	.	.	1e
.	2c#i	.	.
=225	=225	=225	=225
1F	1d	2.D	1d
.	.	4E	.
[1D	1r	2.F	1r
.	.	4G	.
=226	=226	=226	=226
2D]	0r	2.A	0r
4C	.	.	.
4BB-	.	4B-i	.
1AA	.	4c	.
.	.	4B-i	.
.	.	4A	.
.	.	4G	.
=227	=227	=227	=227
2D	0r	4F	0r
.	.	4E	.
2.BB-	.	4D	.
.	.	4C	.
.	.	4D	.
4AA	.	4C	.
2GG	.	[2G	.
=228	=228	=228	=228
1AA	0r	2G]	0r
.	.	2F	.
2GG	.	2G	.
[2D	.	[2B-	.
=229	=229	=229	=229
4D]	0r	4B-]	0r
4AA	.	4A	.
2C	.	1A	.
1BB-	.	.	.
.	.	2G	.
=230	=230	=230	=230
1AA	0r	1A	0r
1r	.	1r	.
=231	=231	=231	=231
0r	4D	0r	2.a
.	4E	.	.
.	4F	.	.
.	4G	.	4g
.	2A	.	2f
.	4G	.	4e
.	4F	.	4d
=232	=232	=232	=232
0r	4E	1r	2c
.	4D	.	.
.	2F	.	2d
.	1E	1G	2e
.	.	.	[2g
=233	=233	=233	=233
1r	1D	1A	4g]
.	.	.	4f
.	.	.	1f
1C	1r	1G	.
.	.	.	2e
=234	=234	=234	=234
1D	0r	2F	1f
.	.	2D	.
1C	.	2E	1r
.	.	[2G	.
=235	=235	=235	=235
2BB-	0r	4G]	1r
.	.	4F	.
2AA	.	1F	.
1GG	.	.	1g
.	.	2E	.
=236	=236	=236	=236
0FF	0r	4F	1.a
.	.	4G	.
.	.	4A	.
.	.	4B	.
.	.	2c	.
.	.	4B	4g
.	.	4A	4f
=237	=237	=237	=237
0r	0r	4B	2g
.	.	4c	.
.	.	2A	1f
.	.	1G	.
.	.	.	2e
=238	=238	=238	=238
0r	0r	1F	1f
.	.	[1f	[1a
=239	=239	=239	=239
0r	0D	2f]	2a]
.	.	2e	2g
.	.	[1d	1f
=240	=240	=240	=240
0r	0A	2d]	2.e
.	.	4c	.
.	.	4B	4d
.	.	1c	1e
=241	=241	=241	=241
0GG	2.B	1.d	2d
.	.	.	1g
.	4c	.	.
.	[1d	.	.
.	.	4c	4f
.	.	4B	4e
=242	=242	=242	=242
1D	1d]	2.A	2f
.	.	.	1g
.	.	4G	.
1D	1d	1A	.
.	.	.	2f
=243	=243	=243	=243
2E	1.c	0r	2g
1F	.	.	2.a
.	.	.	4g
2G	2B	.	[2g
=244	=244	=244	=244
1D	1A	1d	2g]
.	.	.	2.f
2r	1G	4d	.
.	.	4c	4e
[2G	.	4B	[2e
.	.	4A	.
=245	=245	=245	=245
2G]	0r	2B	2e]
2F	.	2A	1d
1E	.	2.G	.
.	.	.	2c#i
.	.	4A	.
=246	=246	=246	=246
0D	1d	2B-i	1d
.	.	2.A	.
.	2.d	.	2r
.	.	4G	.
.	.	4F	[2dd
.	4c	4E	.
=247	=247	=247	=247
0r	2B	2D	2dd]
.	1A	1F	1cc
.	2G	2G	[2b
=248	=248	=248	=248
0r	2A	2F	4b]
.	.	.	4a
.	2c	2A	1a
.	1B	1E	.
.	.	.	[2g
=249	=249	=249	=249
1D	1A	1F	4g]
.	.	.	4f
.	.	.	1f
1C	1r	1G	.
.	.	.	2e
=250	=250	=250	=250
2.F	0D	2F	2.f
.	.	1f	.
4E	.	.	4g
2D	.	.	2.a
4C	.	4e	.
4BBni	.	4d	4b
=251	=251	=251	=251
0AA	0A	2e	2cc
.	.	2f	1dd
.	.	1e	.
.	.	.	2cc#i
=252	=252	=252	=252
1r	2.B	1d	1.dd
.	4c	.	.
1G	[1d	2.B-	.
.	.	.	4cc
.	.	4c	4b
=253	=253	=253	=253
2F	1d]	2.d	2a
2G	.	.	2b
.	.	4e	.
2F	1d	1f	2.a
2D	.	.	.
.	.	.	8gL
.	.	.	8fJ
=254	=254	=254	=254
2.A	1.c	1r	1e
8GL	.	.	.
8FJ	.	.	.
1E	.	2r	1g
.	2B	2e	.
=255	=255	=255	=255
2r	1A	2f	2a
2C	.	4e	1cc
.	.	4c	.
1GG	1G	1d	.
.	.	.	2b
=256	=256	=256	=256
2AA	0r	2c	2cc
2FF	.	2.f	2a
1C	.	.	1g
.	.	4e	.
.	.	4e	.
.	.	4d	.
=257	=257	=257	=257
2.D	1d	2f	0f
.	.	2.F	.
4C	.	.	.
2BB-	2.d	.	.
.	.	4E	.
2AA	.	2F	.
.	4c	.	.
=258	=258	=258	=258
2GG	2B	2G	0r
2AA	1A	2C	.
1BB-	.	2.D	.
.	2G	.	.
.	.	4E	.
=259	=259	=259	=259
1AA	2A	4F	2r
.	.	4G	.
.	2c	4E	2.a
.	.	4F	.
1r	1B	1G	.
.	.	.	4g
.	.	.	[2g
=260	=260	=260	=260
1D	1A	0r	2g]
.	.	.	2f#i
1E-	2r	.	1g
.	2G	.	.
=261	=261	=261	=261
1D	2A	2r	2.f
.	2B	2F	.
.	.	.	8eL
.	.	.	8dJ
[1C	[1c	2G	[1e
.	.	[2A	.
=262	=262	=262	=262
2C]	1c]	4A]	1e]
.	.	4G	.
2BB-	.	1G	.
1AA	1c	.	1r
.	.	2F#i	.
=263	=263	=263	=263
1GG	1B	1G	1r
2r	1A	1D	[1f
[2D	.	.	.
=264	=264	=264	=264
2D]	2r	1A	2f]
4C	1A	.	4e
4BB-	.	.	4d
[1AA	.	[1A	2c
.	4G	.	[2d
.	4F	.	.
=265	=265	=265	=265
1AA]	1E	2A]	2d]
.	.	2G	2c#i
2BB-	1D	1F	4d
.	.	.	4e
2D	.	.	4f
.	.	.	4g
=266	=266	=266	=266
2C	2.G	1G	2e
2BB-	.	.	1d
.	4A	.	.
2GG	2B	1r	.
2FF	[2c	.	[2a
=267	=267	=267	=267
2F	4c]	2r	4a]
.	4B	.	4g
2E	2G	1e	1g
2C	1A	.	.
2D	.	2d	2f#i
=268	=268	=268	=268
2E	1G	2B	2.g
2.C	.	2.e	.
.	.	.	4a
.	1r	.	2b
4BBni	.	4d	.
2AA	.	2c	[2cc
=269	=269	=269	=269
1GG	1G	1d	2cc]
.	.	.	2b
1r	2A	2.c	1cc
.	2B	.	.
.	.	4B	.
=270	=270	=270	=270
0r	0c	4A	2r
.	.	4G	.
.	.	1F	1a
.	.	4E	4g
.	.	4D	4f
=271	=271	=271	=271
2r	1c	1C	2.e
2C	.	.	.
.	.	.	4d
2.F	[1A	2r	1c
.	.	[2c	.
4G	.	.	.
=272	=272	=272	=272
2A	2A]	2c]	2f
2E	2G	4B	2g
.	.	4A	.
2F	2F	2G	2a
2C	2E	[2c	[2g
=273	=273	=273	=273
1F	1D	4c]	4g]
.	.	4A	4f
.	.	2B-	1f
1G	1C	2.c	.
.	.	.	2e
.	.	4Bn	.
=274	=274	=274	=274
2F	0r	4A	2f
.	.	4G	.
2A	.	1c	2c
1G	.	.	1d
.	.	2B	.
=275	=275	=275	=275
0C	1G	2c	0c
.	.	1e	.
.	1E	.	.
.	.	[2c	.
=276	=276	=276	=276
0F	1.A	2c]	0r
.	.	1c	.
.	4G	4B	.
.	4F	4A	.
=277	=277	=277	=277
1r	2A	2c	0r
.	2G	2B	.
2r	2F	2A	.
[2C	[2G	[2B	.
=278	=278	=278	=278
2C]	4G]	4B]	0r
.	4F	4A	.
2BB-	2D	1d	.
1AA	1E	.	.
.	.	2c#i	.
=279	=279	=279	=279
1r	0D	2d	0r
.	.	2A	.
2r	.	2.d	.
2D	.	.	.
.	.	4c	.
=280	=280	=280	=280
2.G	0r	4B	0r
.	.	4A	.
.	.	1d	.
4F	.	.	.
1E	.	.	.
.	.	2c#i	.
=281	=281	=281	=281
0r	2r	2.d	1r
.	2D	.	.
.	.	4c	.
.	2.G	2.B	2r
.	.	.	2d
.	4F	4A	.
=282	=282	=282	=282
0C	1E	2G	2.g
.	.	2E	.
.	.	.	4f
.	2r	4G	1e
.	.	4F	.
.	2E	4E	.
.	.	4D	.
=283	=283	=283	=283
2E	4G	1C	1r
.	4F	.	.
2.G	4E	.	.
.	4D	.	.
.	1C	1c	2r
4F	.	.	.
4E	.	.	2e
4D	.	.	.
=284	=284	=284	=284
1C	0r	2.c	4g
.	.	.	4f
.	.	.	4e
.	.	4B	4d
1F	.	1A	1c
=285	=285	=285	=285
2.C	2r	0G	1r
.	2E	.	.
4BB-	.	.	.
2AA	2.G	.	2r
[2C	.	.	2e
.	4F	.	.
=286	=286	=286	=286
4C]	1E	2r	2.g
4D	.	.	.
2E	.	2G	.
.	.	.	4f
[1AA	2.A	2.c	1e
.	4G	4B-	.
=287	=287	=287	=287
1AA]	2F	1A	2.a
.	2E	.	.
.	.	.	4g
2BB-	2D	1r	2f
2C	2C	.	2e
=288	=288	=288	=288
2BB-	2G	0r	2d
2AA	2A	.	2c
1GG	1B-	.	2.d
.	.	.	4e
=289	=289	=289	=289
2FF	2.A	2.c	2f
2C	.	.	2.e
.	4G	4B-i	.
2D	2F	2A	.
.	.	.	4d
2GG	2G	2B-i	[2d
=290	=290	=290	=290
1AA	1E	1A	2d]
.	.	.	2c
2BB-	2D	2r	2d
2AA	2C	2c	[2e
=291	=291	=291	=291
2GG	1D	2B-i	2e]
2BB-	.	2G	1d
1AA	1E	[1A	.
.	.	.	2c#i
=292	=292	=292	=292
[0Dl	[0Dl	2A]	[0dl
.	.	4G	.
.	.	4A	.
.	.	1B-i	.
=293	=293	=293	=293
0D]	0D]	0Al	0d]
==	==	==	==
*-	*-	*-	*-
!!!RDF**kern: l=long note in original notation
!!!RDF**kern: i=editorial accidental
!!!RDF**kern: V=start of tuplet marker
!!!RDF**kern: Z=end of tuplet marker
!!!ENC:	Joel Chapman 2013/09/04
!!!END:	2013/09/04/
!!!EED:	Jesse Rodin
!!!EEV:	2014/01/04/
!!!ONB:	Translated from MusicXML and edited on 2014/01/04/ by Craig Sapp
!!muse2ps: T^@{OPR}^u^@{ONM}{. }@{OTL}^C^@{COM}^i2I150v85,85,85,150Q16
